assets/icons/sixthBlockFirstIcons.svg

<?xml version="1.0" encoding="UTF-8"?> <svg xmlns="http://www.w3.org/2000/svg" width="101" height="101" viewBox="0 0 101 101" fill="none"> <path d="M82.256 75.5605L73.54 73.4155L82.297 60.3345C82.758 59.6465 82.573 58.7145 81.885 58.2535C81.198 57.7935 80.266 57.9765 79.805 58.6655L69.857 73.5255C69.585 73.9325 69.528 74.4455 69.705 74.9015C69.882 75.3585 70.269 75.6995 70.745 75.8165L79.573 77.9885L70.859 92.6175C70.435 93.3295 70.669 94.2495 71.38 94.6735C71.62 94.8175 71.885 94.8845 72.147 94.8845C72.658 94.8845 73.156 94.6235 73.437 94.1525L83.187 77.7835C83.43 77.3755 83.465 76.8755 83.282 76.4375C83.098 75.9995 82.718 75.6745 82.256 75.5605Z" fill="#E29A01"></path> <path d="M50.0004 5.11328C25.1084 5.11328 4.85742 25.3633 4.85742 50.2543C4.85742 67.9413 14.7704 88.0823 33.7984 92.3723L36.2504 92.7843C36.2924 92.7913 36.3344 92.7963 36.3774 92.8003C37.7044 92.9083 38.9204 92.9643 40.0364 92.9643C44.3904 92.9643 47.2204 92.1213 49.1894 90.3053C51.3144 88.3473 52.3044 85.3353 52.3044 80.8263V71.3153C62.6724 70.1623 70.7634 61.3523 70.7634 50.6793V37.2513C70.7634 36.4243 70.0944 35.7543 69.2684 35.7513L62.1944 35.7273V23.4683C62.1944 22.6393 61.5224 21.9683 60.6944 21.9683C59.8664 21.9683 59.1944 22.6393 59.1944 23.4683V35.7173L40.8004 35.6553V23.4693C40.8004 22.6403 40.1284 21.9693 39.3004 21.9693C38.4724 21.9693 37.8004 22.6403 37.8004 23.4693V35.6453L30.7334 35.6213C30.3384 35.6083 29.9524 35.7773 29.6704 36.0593C29.3884 36.3413 29.2294 36.7233 29.2294 37.1213V50.6803C29.2294 61.9003 38.1764 71.0483 49.3054 71.4173V80.8273C49.3054 84.4393 48.6224 86.7503 47.1584 88.1003C45.3904 89.7273 42.1594 90.2553 36.6844 89.8163L34.3774 89.4303C16.9664 85.5033 7.85642 66.7503 7.85642 50.2553C7.85642 27.0193 26.7614 8.11428 49.9994 8.11428C73.2374 8.11428 92.1434 27.0183 92.1434 50.2553C92.1434 51.0843 92.8154 51.7553 93.6434 51.7553C94.4714 51.7553 95.1434 51.0843 95.1434 50.2553C95.1434 25.3633 74.8924 5.11328 50.0004 5.11328ZM32.2294 50.6783V38.6243L39.1524 38.6473C39.2024 38.6523 39.2504 38.6623 39.3024 38.6623C39.3504 38.6623 39.3954 38.6523 39.4424 38.6483L67.7654 38.7443V50.6773C67.7654 60.4763 59.7944 68.4493 49.9974 68.4493C40.2004 68.4493 32.2294 60.4773 32.2294 50.6783Z" fill="#E29A01"></path> </svg>

<svg xmlns="http://www.w3.org/2000/svg" width="101" height="101" fill="none"><path d="m82.256 75.56-8.716-2.145 8.757-13.08a1.5 1.5 0 0 0-2.492-1.67l-9.948 14.86a1.5 1.5 0 0 0 .888 2.291l8.828 2.172-8.714 14.63a1.5 1.5 0 0 0 2.578 1.535l9.75-16.37a1.501 1.501 0 0 0-.931-2.222Z" fill="#E29A01"/><path d="M50 5.113c-24.892 0-45.143 20.25-45.143 45.141 0 17.687 9.913 37.828 28.941 42.118l2.452.412c.042.007.084.012.127.016 1.327.108 2.543.164 3.66.164 4.353 0 7.183-.843 9.152-2.659 2.125-1.958 3.115-4.97 3.115-9.479v-9.51c10.368-1.154 18.46-9.964 18.46-20.637V37.251a1.5 1.5 0 0 0-1.496-1.5l-7.074-.024V23.468a1.5 1.5 0 1 0-3 0v12.25L40.8 35.654V23.47a1.5 1.5 0 1 0-3 0v12.176l-7.067-.024a1.454 1.454 0 0 0-1.063.438 1.503 1.503 0 0 0-.44 1.062v13.56c0 11.22 8.946 20.367 20.075 20.736v9.41c0 3.612-.683 5.923-2.147 7.273-1.768 1.627-4.999 2.155-10.474 1.716l-2.307-.386c-17.41-3.927-26.52-22.68-26.52-39.175 0-23.236 18.904-42.14 42.142-42.14 23.238 0 42.144 18.903 42.144 42.14a1.5 1.5 0 1 0 3 0c0-24.892-20.25-45.142-45.143-45.142ZM32.23 50.678V38.624l6.922.023c.05.005.098.015.15.015.048 0 .093-.01.14-.014l28.323.096v11.933c0 9.8-7.97 17.772-17.768 17.772-9.797 0-17.768-7.972-17.768-17.77Z" fill="#E29A01"/></svg>
